X: 10192
M: C
L: 1/8
K: D
uA |\
d>A G/F/E/D/ G>A F<A, | (G>A) (F>A) E>A, C<E | d>A G/F/E/D/ G>A F<D | (G>A) (A,>A) FD D :|
d>e f<A g>A f<A | a>A c<A c>d e<f | (.c>.A)(.f>.A) (3gfg (3bag | (3fed (3cde d2 (dA) |
(.d>A) (f>.A) (.g>.A) (.a>.A) | (3bge (3fed c<e e>g | (3fdf (3ece (3dcB (3A^GA | (3Bcd (3efg "_Segue Reel"fd d |]


